X: 11
T: Alleluia
N: Derived from Tin2001-Alleluia.krn
C: Johannes Tinctoris
%%abc-version 2.0
%%abcx-abcm2ps-target-version 5.9.1 (29 Sep 2008)
%%abc-creator hum2abc beta
%%abcx-conversion-date 2019/02/17 07:34:55
%%abc-edited-by Jesse Rodin
%%abc-edited-by Chris Gage 01-15-2015
%%abcx-initial-encoding-date 2015/02/21/
%%humdrum-veritas 3067920092
%%humdrum-veritas-data 1644743650
%%linebreak <none>
%%barnumbers 0
L: 1/4
M: 2/1
Q: 1/2=120
%%staves {1 2}
V: 1 clef=treble
V: 2 clef=bass
K: C
[V:1] D4A4- | 
[V:2] D,8 | 
[V:1] A2GFE4- | 
[V:2] A,8- | 
[V:1] E2DEFEDC | 
[V:2] A,8 | 
[V:1] B,3CD2E2- | 
[V:2] G,8- | 
[V:1] E2DCB,4 | 
[V:2] G,8 | 
[V:1] A,4z2G,2 | 
[V:2] F,4E,4 | 
[V:1] B,3CD2B,2 | 
[V:2] G,8 | 
[V:1] C3DE2F2 | 
[V:2] A,8- | 
[V:1] E3DE4 | 
[V:2] A,8 | 
[V:1] D8 | 
[V:2] B,8 | 
[V:1] z4E4- | 
[V:2] C8- | 
[V:1] E2A,2E4 | 
[V:2] C8 | 
[V:1] D2B,2C3D | 
[V:2] B,4A,4 | 
[V:1] E2F2E2A2- | 
[V:2] A,8 | 
[V:1] A2G4F2 | 
[V:2] _B,8 | 
[V:1] A8 | 
[V:2] A,8- | 
[V:1] z4A4 | 
[V:2] A,8 | 
[V:1] B6AB | 
[V:2] G,8 | 
[V:1] c2BcA2GF | 
[V:2] A,8- | 
[V:1] E2C3DE2- | 
[V:2] A,8 | 
[V:1] EDCB,C3A, | 
[V:2] A,8 | 
[V:1] [M:2/1](3:2:2A,8z4 | 
[V:2] F,8- | 
[V:1] (3:2:4A6G2F2E2 | 
[V:2] F,8 | 
[V:1] (3:2:2D4G8 | 
[V:2] G,8 | 
[V:1] (3F6G2A4 | 
[V:2] D,8- | 
[V:1] (3F6E2D4 | 
[V:2] D,8 | 
[V:1] [M:2/1]C8 | 
[V:2] F,8- | 
[V:1] z4D4 | 
[V:2] F,8 | 
[V:1] E3DF2D2- | 
[V:2] E,4D,4 | 
[V:1] DCB,A,B,4 | 
[V:2] D,8 | 
[V:1] C8 | 
[V:2] C,8- | 
[V:1] G4c4- | 
[V:2] C,8 | 
[V:1] c2B2A3B | 
[V:2] F,8 | 
[V:1] c2A3GFE | 
[V:2] F,8 | 
[V:1] D2B,3CD2- | 
[V:2] G,8- | 
[V:1] DCB,A,B,4 | 
[V:2] G,8 | 
[V:1] [M:2/1](3A,4C6D2 | 
[V:2] A,8- | 
[V:1] (3:2:4E4F6E F | 
[V:2] A,8 | 
[V:1] [M:2/1]G6E2- | 
[V:2] G,4E,4 | 
[V:1] EDC2D2CD | 
[V:2] F,8 | 
[V:1] E2DCB,2C2- | 
[V:2] E,8- | 
[V:1] CDE3FG2- | 
[V:2] E,8 | 
[V:1] GFED^C3B, | 
[V:2] E,8 | 
[V:1] D8 |]  
[V:2] D,8 |]  



